packages/foundations/assets/icons/functional/images/transportation/boat_24.svg

<svg width="24" height="24" viewBox="0 0 24 24" fill="none" xmlns="http://www.w3.org/2000/svg">
<g clip-path="url(#clip0_187_855)">
<path fill-rule="evenodd" clip-rule="evenodd" d="M18.2133 15.8C18.6332 16.2308 19.6782 17.5 20.4989 17.5C21.0512 17.5 21.4989 17.9477 21.4989 18.5C21.4989 19.0128 21.0542 19.5045 20.4989 19.4999C19.4826 19.4915 18.4826 18.9889 17.4989 17.992C16.4555 18.9988 15.4541 19.5015 14.4947 19.5C13.5352 19.4985 12.5366 18.9962 11.4989 17.993C10.4682 18.9977 9.46838 19.5 8.49952 19.5C7.53066 19.5 6.53045 18.998 5.4989 17.994C4.46523 18.998 3.46523 19.5 2.4989 19.5C1.94662 19.5 1.4989 19.0523 1.4989 18.5C1.4989 17.9872 1.93472 17.5 2.4989 17.5C3.36644 17.5 4.29848 16.4347 4.69845 15.9006C5.09842 15.3665 5.89938 15.3665 6.29935 15.9006C6.69933 16.4347 7.50791 17.5001 8.49906 17.5C9.49021 17.4999 10.2989 16.4333 10.6989 15.9C11.0989 15.3667 11.8988 15.3667 12.2988 15.8999C12.6989 16.4331 13.4274 17.4999 14.5005 17.5C15.5736 17.5001 16.3258 16.3972 16.699 15.8998C17.0722 15.4024 17.7935 15.3691 18.2133 15.8ZM10.4697 4.5C12.1164 4.5 13.428 5.21142 14.3982 6.36696C14.7738 6.81426 15.0495 7.26004 15.2405 7.65121L21.3153 6.517C22.0906 6.3722 22.7047 7.13362 22.4376 7.8459L19.3933 13.9472C19.1463 14.4412 18.5457 14.6414 18.0517 14.3944C17.593 14.1651 17.3283 13.591 17.6708 12.9317C15.2825 13.3591 12.2262 13.9151 8.50172 14.5996C7.95834 14.6984 7.43776 14.338 7.33896 13.7946C7.24722 13.2901 7.55143 12.8052 8.03041 12.6594L18.7888 10.6967L19.7039 8.852L3.8665 11.8102C3.65588 11.8539 3.5324 11.9642 3.50482 12.1433L3.4989 14.5C3.4989 15.0523 3.05119 15.5 2.4989 15.5C1.98607 15.5 1.56339 15.114 1.50563 14.6166L1.4989 12.2243C1.4989 11.053 2.25703 10.1763 3.31071 9.88858L4.93491 9.57359C5.38993 9.38801 5.7231 7.97324 5.50794 6.38418C5.44165 5.8946 5.74211 5.43642 6.20395 5.29441L10.4697 4.5ZM7.57549 7.06403C7.60739 7.79533 7.55544 8.49434 7.41036 9.11519L13.1557 8.04049C13.0679 7.90799 12.9715 7.77803 12.8665 7.65303C12.2959 6.97336 11.5858 6.56174 10.6818 6.5064L7.57549 7.06403Z" fill="#1A1C1F"/>
</g>
<defs>
<clipPath id="clip0_187_855">
<rect width="24" height="24" fill="white"/>
</clipPath>
</defs>
</svg>

<svg xmlns="http://www.w3.org/2000/svg" width="24" height="24" fill="none"><g clip-path="url(#a)"><path fill="#1A1C1F" fill-rule="evenodd" d="M18.213 15.8c.42.43 1.465 1.7 2.286 1.7a1 1 0 0 1 1 1c0 .513-.445 1.005-1 1q-1.524-.013-3-1.508-1.565 1.51-3.004 1.508t-2.996-1.507q-1.545 1.507-3 1.507-1.453 0-3-1.506-1.551 1.506-3 1.506a1 1 0 0 1-1-1c0-.513.436-1 1-1 .867 0 1.8-1.065 2.2-1.6a1 1 0 0 1 1.6 0c.4.535 1.209 1.6 2.2 1.6s1.8-1.067 2.2-1.6a1 1 0 0 1 1.6 0c.4.533 1.128 1.6 2.202 1.6 1.073 0 1.825-1.103 2.198-1.6a1 1 0 0 1 1.514-.1M10.47 4.5c1.646 0 2.958.711 3.928 1.867.376.447.652.893.843 1.284l6.074-1.134a1 1 0 0 1 1.123 1.329l-3.045 6.101a1 1 0 0 1-1.341.447c-.459-.229-.724-.803-.381-1.462q-3.582.64-9.17 1.668a1 1 0 0 1-.47-1.94l10.758-1.963.915-1.845L3.867 11.81c-.211.044-.335.154-.362.333L3.499 14.5a1 1 0 0 1-1.993.117l-.007-2.393c0-1.171.758-2.048 1.812-2.335l1.624-.315c.455-.186.788-1.6.573-3.19a1 1 0 0 1 .696-1.09zM7.575 7.064c.032.731-.02 1.43-.165 2.051l5.746-1.075a4 4 0 0 0-.29-.387c-.57-.68-1.28-1.091-2.184-1.147z" clip-rule="evenodd"/></g><defs><clipPath id="a"><path fill="#fff" d="M0 0h24v24H0z"/></clipPath></defs></svg>
